media/templates/quotation-marks-open.svg

<svg width="48" height="49" viewBox="0 0 48 49" fill="none" xmlns="http://www.w3.org/2000/svg">
<g clip-path="url(#clip0_2978_8515)">
<path d="M9.88711 20.4014C10.4727 16.7203 15.0741 12.7882 18.6716 12.7046C18.9226 12.7046 19.1736 12.6209 19.3409 12.4536C19.5082 12.3699 19.6755 12.2862 19.7592 12.0353C21.0141 9.69273 20.3448 7.85217 18.2533 6.34626C15.8271 4.58936 11.9787 6.34626 10.0544 7.93583C5.20205 11.9516 0.266001 18.8954 0.516987 25.5048C-0.319631 29.939 -0.152308 34.7076 1.10262 38.6397C1.93924 41.1496 4.36543 42.4045 6.87528 42.5718C9.38514 42.7393 14.5722 43.4921 16.831 41.9863C19.0899 40.4803 19.2572 37.5521 19.5082 35.0424C19.7592 32.2816 20.5122 27.0944 18.1696 24.9192C15.8271 22.8276 9.13415 25.0865 9.88711 20.4014Z" fill="#B3DCE6"/>
<path d="M37.4955 20.4014C38.0811 16.7203 42.6824 12.7882 46.28 12.7046C46.531 12.7046 46.782 12.6209 46.9493 12.4536C47.1168 12.3699 47.2839 12.2862 47.3677 12.0353C48.6227 9.69273 47.9534 7.85217 45.8618 6.34626C43.4356 4.58936 39.5872 6.34626 37.6628 7.93583C32.8105 11.9516 27.8744 18.8955 28.1254 25.5048C27.2888 29.939 27.4561 34.7076 28.7109 38.6397C29.5475 41.1496 31.9737 42.4045 34.4837 42.5718C36.9935 42.7393 42.1806 43.4921 44.4394 41.9863C46.6982 40.4803 46.8656 37.5521 47.1166 35.0424C47.3676 32.2816 48.1206 27.0944 45.778 24.9192C43.4355 22.8276 36.6589 25.0865 37.4955 20.4014Z" fill="#B3DCE6"/>
</g>
<defs>
<clipPath id="clip0_2978_8515">
<rect width="48" height="48" fill="white" transform="translate(0 0.260742)"/>
</clipPath>
</defs>
</svg>

<?xml version="1.0" encoding="UTF-8"?>
<svg id="Layer_1" data-name="Layer 1" xmlns="http://www.w3.org/2000/svg" xmlns:xlink="http://www.w3.org/1999/xlink" version="1.1" viewBox="0 0 48 49">
  <defs>
    <style>
      .cls-1 {
        clip-path: url(#clippath);
      }

      .cls-2 {
        fill: none;
      }

      .cls-2, .cls-3 {
        stroke-width: 0px;
      }

      .cls-3 {
        fill: #d8cef3;
      }
    </style>
    <clipPath id="clippath">
      <rect class="cls-2" y=".3" width="48" height="48"/>
    </clipPath>
  </defs>
  <g class="cls-1">
    <g>
      <path class="cls-3" d="M9.9,20.4c.6-3.7,5.2-7.6,8.8-7.7.3,0,.5,0,.7-.3.2,0,.3-.2.4-.4,1.3-2.3.6-4.2-1.5-5.7-2.4-1.8-6.3,0-8.2,1.6C5.2,12,.3,18.9.5,25.5c-.8,4.4-.7,9.2.6,13.1.8,2.5,3.3,3.8,5.8,3.9,2.5.2,7.7.9,10-.6,2.3-1.5,2.4-4.4,2.7-6.9.3-2.8,1-7.9-1.3-10.1-2.3-2.1-9,.2-8.3-4.5Z"/>
      <path class="cls-3" d="M37.5,20.4c.6-3.7,5.2-7.6,8.8-7.7.3,0,.5,0,.7-.3.2,0,.3-.2.4-.4,1.3-2.3.6-4.2-1.5-5.7-2.4-1.8-6.3,0-8.2,1.6-4.9,4-9.8,11-9.5,17.6-.8,4.4-.7,9.2.6,13.1.8,2.5,3.3,3.8,5.8,3.9,2.5.2,7.7.9,10-.6,2.3-1.5,2.4-4.4,2.7-6.9.3-2.8,1-7.9-1.3-10.1-2.3-2.1-9.1.2-8.3-4.5Z"/>
    </g>
  </g>
</svg>
